X: 041
T: Weel may the keel row
R: reel
M: C|
L: 1/8
Z: 2012 John Chambers <jc:trillian.mit.edu>
B: J. Anderson "Budget of Strathspeys, Reels and Country Dances" (Early 1800s) p.4 #1
F: http://imslp.org/wiki/Anderson%27s_Budget_of_Strathspeys,_Reels_and_Country_Dances_(Various)
K: A
e |\
cAAc d2(Be) | c2(Ac) B2(GB) | cA A/A/A d2(Bd) | cABG A2A :|
d |\
ceea f2(df) | (ec)(Ac) B2(GB) | ceea f2(de) | cA BG A2(Ad) |
ceea f2(de) | c2(Ac) B2(GB) | (ce).e.a (fa).e.f | cABG A2A |]

%%sep 2 1 500
%%sep 1 1 500

